X:82
M:C|
L:1/8
K:D
g|fdad bdad|fdaf geeg|1 fdad bdad|geag fdd:|2 fadf gbeg|ABde fdd||

